svgs/sharp-light/square-arrow-down.svg

<svg xmlns="http://www.w3.org/2000/svg" viewBox="0 0 448 512"><!--! Font Awesome Pro 6.6.0 by @fontawesome - https://fontawesome.com License - https://fontawesome.com/license (Commercial License) Copyright 2024 Fonticons, Inc. --><path d="M32 448L32 64l384 0 0 384L32 448zM0 480l32 0 384 0 32 0 0-32 0-384 0-32-32 0L32 32 0 32 0 64 0 448l0 32zM235.3 379.3l96-96L342.6 272 320 249.4l-11.3 11.3L240 329.4 240 144l0-16-32 0 0 16 0 185.4-68.7-68.7L128 249.4 105.4 272l11.3 11.3 96 96L224 390.6l11.3-11.3z"/></svg>

<svg xmlns="http://www.w3.org/2000/svg" viewBox="0 0 448 512"><!--! Font Awesome Pro 6.4.2 by @fontawesome - https://fontawesome.com License - https://fontawesome.com/license (Commercial License) Copyright 2023 Fonticons, Inc. --><path d="M32 448V64H416V448H32zM0 480H32 416h32V448 64 32H416 32 0V64 448v32zM235.3 379.3l96-96L342.6 272 320 249.4l-11.3 11.3L240 329.4V144 128H208v16V329.4l-68.7-68.7L128 249.4 105.4 272l11.3 11.3 96 96L224 390.6l11.3-11.3z"/></svg>
